;FLAVOR:Marlin
;TIME:8532
;Filament used: 4.64807m
;Layer height: 0.2
;MINX:73.033
;MINY:52.73
;MINZ:0.2
;MAXX:158.019
;MAXY:195.738
;MAXZ:9.4
;Generated with Cura_SteamEngine 4.6.1
M140 S60
M105
M190 S60
M104 S200
M105
M109 S200
M82 ;absolute extrusion mode
; Ender 3 Custom Start G-code
G92 E0 ; Reset Extruder
G28 ; Home all axes
G1 Z2.0 F3000 ; Move Z Axis up little to prevent scratching of Heat Bed
G1 X0.1 Y20 Z0.3 F5000.0 ; Move to start position
G1 X0.1 Y200.0 Z0.3 F1500.0 E15 ; Draw the first line
G1 X0.4 Y200.0 Z0.3 F5000.0 ; Move to side a little
G1 X0.4 Y20 Z0.3 F1500.0 E30 ; Draw the second line
G92 E0 ; Reset Extruder
G1 Z2.0 F3000 ; Move Z Axis up little to prevent scratching of Heat Bed
G1 X5 Y20 Z0.3 F5000.0 ; Move over to prevent blob squish
G92 E0
G92 E0
G1 F1500 E-6.5
;LAYER_COUNT:47
;LAYER:0
M107
G0 F6000 X114.502 Y53.556 Z0.2
;TYPE:SKIRT
G1 F1500 E0
G1 F1200 X116.462 Y53.657 E0.06528
G1 X117.188 Y53.705 E0.08948
G1 X117.75 Y53.758 E0.10825
G1 X117.996 Y53.788 E0.11649
G1 X118.307 Y53.831 E0.12694
G1 X120.492 Y54.167 E0.20046
G1 X121.171 Y54.282 E0.22337
G1 X121.721 Y54.391 E0.24202
G1 X122.008 Y54.456 E0.25181
G1 X122.324 Y54.533 E0.26262
G1 X124.433 Y55.083 E0.33511
G1 X125.094 Y55.266 E0.35793
G1 X125.587 Y55.416 E0.37507
G1 X125.876 Y55.512 E0.38519
G1 X126.225 Y55.635 E0.3975
G1 X128.25 Y56.391 E0.46939
G1 X128.904 Y56.645 E0.49273
G1 X129.456 Y56.878 E0.51266
G1 X129.716 Y56.997 E0.52217
G1 X129.99 Y57.128 E0.53227
G1 X131.929 Y58.087 E0.60422
G1 X132.54 Y58.399 E0.62704
G1 X133.155 Y58.74 E0.65042
G1 X133.742 Y59.096 E0.67326
G1 X135.408 Y60.145 E0.73874
G1 X136.009 Y60.535 E0.76257
G1 X136.593 Y60.943 E0.78626
G1 X137.135 Y61.354 E0.80889
G1 X138.603 Y62.502 E0.87087
G1 X139.224 Y63.001 E0.89737
G1 X139.685 Y63.395 E0.91754
G1 X140.099 Y63.775 E0.93623
G1 X141.654 Y65.268 E1.00793
G1 X142.155 Y65.763 E1.03135
G1 X142.54 Y66.165 E1.04986
G1 X143.093 Y66.793 E1.0777
G1 X144.346 Y68.272 E1.14217
G1 X144.783 Y68.803 E1.16504
G1 X145.113 Y69.227 E1.18291
G1 X145.316 Y69.502 E1.19428
G1 X145.519 Y69.787 E1.20592
G1 X146.7 Y71.509 E1.27537
G1 X147.105 Y72.115 E1.29961
G1 X147.433 Y72.639 E1.32017
G1 X147.702 Y73.107 E1.33812
G1 X148.742 Y75.007 E1.41017
G1 X149.072 Y75.63 E1.43361
G1 X149.339 Y76.174 E1.45377
G1 X149.593 Y76.741 E1.47443
G1 X150.404 Y78.67 E1.54403
G1 X150.682 Y79.356 E1.56865
G1 X150.888 Y79.91 E1.58831
G1 X151.08 Y80.489 E1.6086
G1 X151.706 Y82.546 E1.68011
G1 X151.902 Y83.221 E1.70349
G1 X152.046 Y83.774 E1.7225
G1 X152.114 Y84.069 E1.73257
G1 X152.184 Y84.395 E1.74366
G1 X152.607 Y86.558 E1.81696
G1 X152.72 Y87.185 E1.83815
G1 X152.801 Y87.709 E1.85579
G1 X152.841 Y88.024 E1.86635
G1 X152.878 Y88.366 E1.87779
G1 X153.073 Y90.479 E1.94837
G1 X153.131 Y91.214 E1.97289
G1 X153.161 Y91.803 E1.9925
G1 X153.169 Y92.399 E2.01233
G1 X153.147 Y94.578 E2.08481
G1 X153.13 Y95.27 E2.10783
G1 X153.101 Y95.822 E2.12621
G1 X153.077 Y96.126 E2.13636
G1 X153.045 Y96.461 E2.14755
G1 X152.802 Y98.617 E2.21971
G1 X152.676 Y99.57 E2.25168
G1 X152.5 Y100.706 E2.28992
G1 X152.131 Y103.319 E2.37769
G1 X151.848 Y105.834 E2.46187
G1 X151.635 Y108.376 E2.54671
G1 X151.494 Y110.903 E2.63089
G1 X151.425 Y113.434 E2.7151
G1 X151.429 Y115.969 E2.79942
G1 X151.503 Y118.511 E2.884
G1 X151.649 Y121.046 E2.96845
G1 X151.865 Y123.563 E3.05248
G1 X152.157 Y126.109 E3.13771
G1 X152.522 Y128.652 E3.22316
G1 X152.946 Y131.107 E3.30602
G1 X153.451 Y133.61 E3.39095
G1 X154.022 Y136.079 E3.47524
G1 X154.666 Y138.543 E3.55994
G1 X155.437 Y141.146 E3.65024
G1 X155.7 Y142.078 E3.68245
G1 X155.822 Y142.549 E3.69863
G1 X156.139 Y143.83 E3.74252
G1 X156.3 Y144.517 E3.76599
G1 X156.406 Y145.028 E3.78335
G1 X156.557 Y145.866 E3.81167
G1 X156.747 Y146.995 E3.84975
G1 X156.892 Y147.97 E3.88253
G1 X156.932 Y148.292 E3.89332
G1 X156.97 Y148.646 E3.90517
G1 X157.107 Y150.201 E3.95709
G1 X157.158 Y150.878 E3.97967
G1 X157.181 Y151.286 E3.99326
G1 X157.203 Y152.006 E4.01722
G1 X157.219 Y153.413 E4.06402
G1 X157.217 Y154.11 E4.0872
G1 X157.206 Y154.555 E4.102
G1 X157.167 Y155.337 E4.12805
G1 X157.062 Y156.869 E4.17912
G1 X157.018 Y157.346 E4.19505
G1 X156.85 Y158.769 E4.24271
G1 X156.69 Y159.869 E4.27968
G1 X156.507 Y160.967 E4.3167
G1 X156.358 Y161.678 E4.34087
G1 X156.076 Y162.938 E4.38381
G1 X155.902 Y163.667 E4.40874
G1 X155.767 Y164.177 E4.42629
G1 X155.467 Y165.195 E4.46158
G1 X155.199 Y166.068 E4.49196
G1 X154.979 Y166.751 E4.51582
G1 X154.841 Y167.151 E4.5299
G1 X154.6 Y167.799 E4.55289
G1 X154.086 Y169.104 E4.59954
G1 X153.712 Y170.008 E4.63208
G1 X153.515 Y170.443 E4.64796
G1 X153.341 Y170.809 E4.66144
G1 X152.771 Y171.983 E4.70485
G1 X152.313 Y172.889 E4.73861
G1 X152.192 Y173.115 E4.74714
G1 X152.011 Y173.44 E4.75951
G1 X151.199 Y174.83 E4.81305
G1 X150.683 Y175.676 E4.84601
G1 X150.527 Y175.919 E4.85562
G1 X150.327 Y176.22 E4.86764
G1 X149.438 Y177.501 E4.9195
G1 X148.851 Y178.317 E4.95293
G1 X148.685 Y178.537 E4.9621
G1 X148.455 Y178.831 E4.97451
G1 X147.465 Y180.045 E5.02662
G1 X146.974 Y180.63 E5.05202
G1 X146.591 Y181.061 E5.0712
G1 X145.298 Y182.433 E5.1339
G1 X144.793 Y182.949 E5.15791
G1 X144.484 Y183.252 E5.17231
G1 X143.952 Y183.748 E5.1965
G1 X142.937 Y184.66 E5.24188
G1 X142.204 Y185.297 E5.27418
G1 X141.838 Y185.595 E5.28988
G1 X141.531 Y185.835 E5.30284
G1 X140.472 Y186.65 E5.34729
G1 X139.875 Y187.097 E5.37209
G1 X139.493 Y187.369 E5.38769
G1 X138.889 Y187.778 E5.41195
G1 X137.791 Y188.494 E5.45555
G1 X136.96 Y189.016 E5.48819
G1 X136.225 Y189.438 E5.51638
G1 X135.018 Y190.099 E5.56215
G1 X134.136 Y190.564 E5.59531
G1 X133.386 Y190.92 E5.62292
G1 X132.089 Y191.504 E5.67023
G1 X131.469 Y191.773 E5.69271
G1 X131.051 Y191.944 E5.70773
G1 X130.301 Y192.229 E5.73442
G1 X129.157 Y192.643 E5.77488
G1 X128.164 Y192.983 E5.80979
G1 X127.358 Y193.223 E5.83776
G1 X126.075 Y193.577 E5.88203
G1 X125.342 Y193.769 E5.90723
G1 X124.906 Y193.873 E5.92214
G1 X124.21 Y194.021 E5.94581
G1 X122.909 Y194.274 E5.98989
G1 X122.211 Y194.401 E6.01349
G1 X121.739 Y194.476 E6.02938
G1 X121.035 Y194.568 E6.053
G1 X119.703 Y194.723 E6.0976
G1 X119.021 Y194.793 E6.1204
G1 X118.56 Y194.829 E6.13578
G1 X117.778 Y194.872 E6.16183
G1 X116.461 Y194.922 E6.20566
G1 X115.778 Y194.938 E6.22839
G1 X115.321 Y194.939 E6.24359
G1 X114.581 Y194.921 E6.26821
G1 X113.28 Y194.87 E6.31151
G1 X112.308 Y194.815 E6.34389
G1 X111.469 Y194.735 E6.37192
G1 X110.047 Y194.569 E6.41954
G1 X109.36 Y194.479 E6.44259
G1 X108.928 Y194.413 E6.45712
G1 X108.283 Y194.298 E6.47891
G1 X106.9 Y194.027 E6.52579
G1 X106.247 Y193.891 E6.54797
G1 X105.707 Y193.763 E6.56643
G1 X104.76 Y193.511 E6.59902
G1 X103.758 Y193.233 E6.63361
G1 X102.673 Y192.906 E6.6713
G1 X102.036 Y192.687 E6.6937
G1 X100.686 Y192.196 E6.74148
G1 X99.793 Y191.854 E6.77329
G1 X99.582 Y191.767 E6.78088
G1 X99.278 Y191.636 E6.79189
G1 X97.772 Y190.956 E6.84685
G1 X97.439 Y190.8 E6.85908
G1 X97.118 Y190.642 E6.87098
G1 X95.892 Y190.01 E6.91685
G1 X94.897 Y189.462 E6.95463
G1 X94.586 Y189.285 E6.96654
G1 X94.286 Y189.107 E6.97814
G1 X93.074 Y188.357 E7.02554
G1 X92.2 Y187.785 E7.06029
G1 X91.591 Y187.375 E7.0847
G1 X91.144 Y187.056 E7.10297
G1 X90.459 Y186.539 E7.13151
G1 X89.579 Y185.861 E7.16846
G1 X88.814 Y185.249 E7.20104
G1 X88.596 Y185.066 E7.21051
G1 X88.329 Y184.834 E7.22228
G1 X87.163 Y183.783 E7.27449
G1 X86.626 Y183.285 E7.29885
G1 X86.297 Y182.966 E7.31409
G1 X85.829 Y182.488 E7.33634
G1 X84.875 Y181.484 E7.3824
G1 X84.397 Y180.968 E7.4058
G1 X84.081 Y180.61 E7.42168
G1 X83.689 Y180.142 E7.44198
G1 X82.777 Y179.021 E7.49005
G1 X82.375 Y178.513 E7.51159
G1 X81.901 Y177.876 E7.538
G1 X81.693 Y177.581 E7.55001
G1 X80.891 Y176.421 E7.59691
G1 X80.367 Y175.631 E7.62844
G1 X80.108 Y175.22 E7.6446
G1 X79.913 Y174.892 E7.65729
G1 X79.2 Y173.669 E7.70438
G1 X78.874 Y173.092 E7.72642
G1 X78.659 Y172.69 E7.74158
G1 X78.336 Y172.05 E7.76543
G1 X77.738 Y170.813 E7.81112
G1 X77.333 Y169.934 E7.84331
G1 X77.024 Y169.191 E7.87008
G1 X76.518 Y167.902 E7.91614
G1 X76.26 Y167.219 E7.94042
G1 X76.1 Y166.762 E7.95652
G1 X75.867 Y166.039 E7.98179
G1 X75.487 Y164.791 E8.02518
G1 X75.297 Y164.135 E8.04789
G1 X75.185 Y163.716 E8.06232
G1 X75.015 Y163.01 E8.08647
G1 X74.727 Y161.716 E8.13056
G1 X74.578 Y161.01 E8.15456
G1 X74.487 Y160.519 E8.17117
G1 X74.389 Y159.903 E8.19192
G1 X74.186 Y158.481 E8.23969
G1 X74.106 Y157.863 E8.26042
G1 X74.026 Y157.073 E8.28683
G1 X73.999 Y156.714 E8.2988
G1 X73.911 Y155.356 E8.34407
G1 X73.873 Y154.624 E8.36844
G1 X73.855 Y153.891 E8.39283
G1 X73.856 Y153.451 E8.40747
G1 X73.873 Y152.109 E8.4521
G1 X73.903 Y151.123 E8.48491
G1 X73.931 Y150.67 E8.50001
G1 X73.968 Y150.199 E8.51572
G1 X74.086 Y148.897 E8.55921
G1 X74.158 Y148.198 E8.58258
G1 X74.214 Y147.747 E8.59769
G1 X74.322 Y147.032 E8.62174
G1 X74.545 Y145.711 E8.6663
G1 X74.768 Y144.54 E8.70595
G1 X74.898 Y143.978 E8.72514
G1 X75.474 Y141.381 E8.81361
G1 X75.958 Y138.871 E8.89863
G1 X76.361 Y136.395 E8.98207
G1 X76.7 Y133.875 E9.06664
G1 X76.969 Y131.33 E9.15176
G1 X77.163 Y128.805 E9.23599
G1 X77.286 Y126.277 E9.32017
G1 X77.338 Y123.731 E9.40487
G1 X77.318 Y121.173 E9.48995
G1 X77.227 Y118.666 E9.57339
G1 X77.062 Y116.11 E9.65858
G1 X76.827 Y113.588 E9.74282
G1 X76.521 Y111.076 E9.82699
G1 X76.136 Y108.514 E9.91316
G1 X75.703 Y106.104 E9.9946
G1 X74.987 Y102.739 E10.10902
G1 X74.568 Y100.825 E10.17419
G1 X74.425 Y100.129 E10.19782
G1 X74.325 Y99.56 E10.21704
G1 X74.244 Y98.977 E10.23662
G1 X73.997 Y96.837 E10.30826
G1 X73.924 Y96.111 E10.33253
G1 X73.883 Y95.533 E10.35181
G1 X73.861 Y94.928 E10.37194
G1 X73.833 Y92.766 E10.44386
G1 X73.834 Y92.068 E10.46707
G1 X73.85 Y91.511 E10.48561
G1 X73.865 Y91.244 E10.4945
G1 X73.889 Y90.911 E10.5056
G1 X74.083 Y88.743 E10.578
G1 X74.157 Y88.029 E10.60188
G1 X74.249 Y87.36 E10.62434
G1 X74.365 Y86.696 E10.64675
G1 X74.749 Y84.724 E10.71358
G1 X74.887 Y84.062 E10.73607
G1 X75.013 Y83.528 E10.75432
G1 X75.244 Y82.704 E10.78278
G1 X75.809 Y80.844 E10.84743
G1 X76.028 Y80.158 E10.87138
G1 X76.205 Y79.65 E10.88928
G1 X76.314 Y79.362 E10.89952
G1 X76.439 Y79.047 E10.91079
G1 X77.256 Y77.091 E10.98129
G1 X77.558 Y76.397 E11.00647
G1 X77.788 Y75.905 E11.02453
G1 X77.892 Y75.697 E11.03227
G1 X78.051 Y75.392 E11.04371
G1 X79.108 Y73.448 E11.1173
G1 X79.437 Y72.862 E11.13966
G1 X79.713 Y72.399 E11.15758
G1 X79.87 Y72.151 E11.16735
G1 X80.064 Y71.855 E11.17912
G1 X81.306 Y70.039 E11.25229
G1 X81.71 Y69.466 E11.27561
G1 X82.042 Y69.021 E11.29408
G1 X82.185 Y68.84 E11.30175
G1 X82.403 Y68.574 E11.31319
G1 X83.893 Y66.815 E11.38986
G1 X84.334 Y66.31 E11.41216
G1 X84.694 Y65.918 E11.42986
G1 X84.886 Y65.72 E11.43904
G1 X85.317 Y65.296 E11.45915
G1 X86.68 Y63.986 E11.52202
G1 X87.22 Y63.482 E11.54659
G1 X87.635 Y63.115 E11.56502
G1 X87.843 Y62.941 E11.57404
G1 X88.103 Y62.731 E11.58515
G1 X89.809 Y61.398 E11.65716
G1 X90.368 Y60.974 E11.6805
G1 X90.819 Y60.651 E11.69895
G1 X91.066 Y60.484 E11.70886
G1 X91.337 Y60.307 E11.71963
G1 X93.211 Y59.126 E11.7933
G1 X93.767 Y58.787 E11.81496
G1 X94.25 Y58.51 E11.83348
G1 X95.004 Y58.119 E11.86173
G1 X96.734 Y57.265 E11.9259
G1 X97.398 Y56.948 E11.95037
G1 X97.889 Y56.729 E11.96825
G1 X98.157 Y56.618 E11.9779
G1 X98.488 Y56.488 E11.98973
G1 X100.498 Y55.738 E12.06109
G1 X101.176 Y55.496 E12.08503
G1 X101.706 Y55.323 E12.10357
G1 X102.276 Y55.159 E12.1233
G1 X104.414 Y54.601 E12.19679
G1 X105.073 Y54.439 E12.21936
G1 X105.598 Y54.324 E12.23724
G1 X105.897 Y54.267 E12.24736
G1 X106.251 Y54.206 E12.25931
G1 X108.371 Y53.88 E12.33065
G1 X109.083 Y53.78 E12.35456
G1 X109.786 Y53.706 E12.37807
G1 X110.447 Y53.661 E12.40011
G1 X112.424 Y53.561 E12.46595
G1 X113.131 Y53.535 E12.48948
G1 X113.686 Y53.53 E12.50794
G1 X113.913 Y53.534 E12.51549
G1 X114.502 Y53.556 E12.5351
G0 F6000 X114.522 Y53.157
G1 F1200 X116.488 Y53.258 E12.60057
G1 X117.214 Y53.306 E12.62477
G1 X117.798 Y53.361 E12.64428
G1 X118.368 Y53.435 E12.6634
G1 X120.559 Y53.773 E12.73713
G1 X121.238 Y53.888 E12.76004
G1 X121.809 Y54.001 E12.7794
G1 X122.096 Y54.066 E12.78919
G1 X122.424 Y54.146 E12.80042
G1 X124.539 Y54.697 E12.87311
G1 X125.2 Y54.88 E12.89592
G1 X125.714 Y55.036 E12.91379
G1 X126.003 Y55.132 E12.92391
G1 X126.365 Y55.26 E12.93669
G1 X128.395 Y56.018 E13.00876
G1 X129.049 Y56.272 E13.03209
G1 X129.622 Y56.515 E13.05279
G1 X130.168 Y56.769 E13.07282
G1 X132.111 Y57.731 E13.14493
G1 X132.722 Y58.043 E13.16775
G1 X133.361 Y58.397 E13.19205
G1 X133.955 Y58.757 E13.21515
G1 X135.626 Y59.809 E13.28082
G1 X136.227 Y60.199 E13.30465
G1 X136.834 Y60.624 E13.3293
G1 X137.382 Y61.038 E13.35214
G1 X138.854 Y62.19 E13.41431
G1 X139.475 Y62.689 E13.44081
G1 X139.954 Y63.098 E13.46176
G1 X140.376 Y63.486 E13.48082
G1 X141.935 Y64.984 E13.55273
G1 X142.436 Y65.479 E13.57616
G1 X142.836 Y65.896 E13.59538
G1 X143.399 Y66.534 E13.62368
G1 X144.655 Y68.018 E13.68834
G1 X145.092 Y68.549 E13.71122
G1 X145.435 Y68.99 E13.7298
G1 X145.638 Y69.265 E13.74117
G1 X145.849 Y69.561 E13.75326
G1 X147.033 Y71.287 E13.82287
G1 X147.438 Y71.893 E13.84711
G1 X147.778 Y72.437 E13.86845
G1 X148.053 Y72.915 E13.88679
G1 X149.095 Y74.819 E13.95898
G1 X149.425 Y75.442 E13.98243
G1 X149.703 Y76.008 E14.00341
G1 X149.962 Y76.585 E14.02444
G1 X150.775 Y78.52 E14.09425
G1 X151.053 Y79.206 E14.11887
G1 X151.267 Y79.781 E14.13927
G1 X151.362 Y80.061 E14.14911
G1 X151.462 Y80.372 E14.15997
G1 X152.091 Y82.434 E14.23168
G1 X152.287 Y83.109 E14.25505
G1 X152.436 Y83.684 E14.27481
G1 X152.504 Y83.979 E14.28488
G1 X152.576 Y84.318 E14.29641
G1 X153.001 Y86.487 E14.36992
G1 X153.114 Y87.114 E14.39111
G1 X153.198 Y87.659 E14.40945
G1 X153.238 Y87.974 E14.42001
G1 X153.277 Y88.33 E14.43192
G1 X153.472 Y90.447 E14.50263
G1 X153.53 Y91.182 E14.52715
G1 X153.561 Y91.794 E14.54754
G1 X153.569 Y92.403 E14.56779
G1 X153.547 Y94.587 E14.64044
G1 X153.53 Y95.279 E14.66346
G1 X153.5 Y95.853 E14.68258
G1 X153.476 Y96.157 E14.69272
G1 X153.443 Y96.505 E14.70435
G1 X153.199 Y98.668 E14.77674
G1 X153.072 Y99.631 E14.80905
G1 X152.888 Y100.817 E14.84897
G1 X152.531 Y103.349 E14.93402
G1 X152.246 Y105.88 E15.01873
G1 X152.035 Y108.395 E15.10267
G1 X151.894 Y110.936 E15.18732
G1 X151.825 Y113.444 E15.27077
G1 X151.829 Y115.992 E15.35551
G1 X151.903 Y118.502 E15.43903
G1 X152.047 Y121.009 E15.52255
G1 X152.267 Y123.555 E15.60755
G1 X152.555 Y126.074 E15.69188
G1 X152.913 Y128.564 E15.77555
G1 X153.339 Y131.032 E15.85885
G1 X153.846 Y133.546 E15.94414
G1 X154.404 Y135.96 E16.02655
G1 X155.046 Y138.418 E16.11105
G1 X155.822 Y141.036 E16.20187
G1 X156.087 Y141.977 E16.23438
G1 X156.211 Y142.453 E16.25074
G1 X156.528 Y143.738 E16.29476
G1 X156.689 Y144.425 E16.31823
G1 X156.8 Y144.957 E16.33631
G1 X156.951 Y145.799 E16.36476
G1 X157.142 Y146.935 E16.40307
G1 X157.289 Y147.92 E16.4362
G1 X157.329 Y148.242 E16.44699
G1 X157.368 Y148.611 E16.45933
G1 X157.506 Y150.171 E16.51142
G1 X157.557 Y150.848 E16.534
G1 X157.58 Y151.272 E16.54812
G1 X157.603 Y152.001 E16.57238
G1 X157.619 Y153.414 E16.61938
G1 X157.617 Y154.111 E16.64256
G1 X157.606 Y154.573 E16.65793
G1 X157.566 Y155.365 E16.68431
G1 X157.461 Y156.897 E16.73538
G1 X157.416 Y157.392 E16.75192
G1 X157.246 Y158.825 E16.79991
G1 X157.085 Y159.932 E16.83712
G1 X156.9 Y161.04 E16.87448
G1 X156.749 Y161.765 E16.89911
G1 X156.465 Y163.031 E16.94227
G1 X156.291 Y163.76 E16.96719
G1 X156.15 Y164.29 E16.98543
G1 X155.849 Y165.312 E17.02087
G1 X155.58 Y166.191 E17.05144
G1 X155.36 Y166.874 E17.07531
G1 X155.216 Y167.29 E17.08995
G1 X154.972 Y167.945 E17.1132
G1 X154.456 Y169.255 E17.16003
G1 X154.205 Y169.87 E17.18212
G1 X153.877 Y170.614 E17.20916
G1 X153.701 Y170.983 E17.22276
G1 X153.129 Y172.162 E17.26635
G1 X152.666 Y173.078 E17.30048
G1 X152.545 Y173.304 E17.30901
G1 X152.356 Y173.642 E17.32189
G1 X151.541 Y175.037 E17.37563
G1 X151.02 Y175.892 E17.40893
G1 X150.864 Y176.135 E17.41853
G1 X150.655 Y176.448 E17.43105
G1 X149.764 Y177.733 E17.48306
G1 X149.171 Y178.558 E17.51685
G1 X149.005 Y178.778 E17.52602
G1 X148.765 Y179.083 E17.53893
G1 X147.771 Y180.303 E17.59127
G1 X147.28 Y180.888 E17.61667
G1 X146.883 Y181.335 E17.63655
G1 X145.584 Y182.713 E17.69954
G1 X145.079 Y183.229 E17.72355
